teeny/outline/venn-diagram.svg

<svg width="15" height="15" viewBox="0 0 15 15" fill="none" xmlns="http://www.w3.org/2000/svg">
<path d="M2.5 9.5C2.5 6.73858 4.73858 4.5 7.5 4.5C10.2614 4.5 12.5 6.73858 12.5 9.5C12.5 12.2614 10.2614 14.5 7.5 14.5C4.73858 14.5 2.5 12.2614 2.5 9.5Z" stroke="black"/>
<path d="M0.5 5.5C0.5 2.73858 2.73858 0.5 5.5 0.5C8.26142 0.5 10.5 2.73858 10.5 5.5C10.5 8.26142 8.26142 10.5 5.5 10.5C2.73858 10.5 0.5 8.26142 0.5 5.5Z" stroke="black"/>
<path d="M4.5 5.5C4.5 2.73858 6.73858 0.5 9.5 0.5C12.2614 0.5 14.5 2.73858 14.5 5.5C14.5 8.26142 12.2614 10.5 9.5 10.5C6.73858 10.5 4.5 8.26142 4.5 5.5Z" stroke="black"/>
</svg>

<svg viewBox="0 0 15 15" xmlns="http://www.w3.org/2000/svg"><g fill="none" stroke="#000"><path d="M2.5 9.5c0-2.77 2.23-5 5-5 2.76 0 5 2.23 5 5 0 2.76-2.24 5-5 5 -2.77 0-5-2.24-5-5Z"/><path d="M.5 5.5c0-2.77 2.23-5 5-5 2.76 0 5 2.23 5 5 0 2.76-2.24 5-5 5 -2.77 0-5-2.24-5-5Z"/><path d="M4.5 5.5c0-2.77 2.23-5 5-5 2.76 0 5 2.23 5 5 0 2.76-2.24 5-5 5 -2.77 0-5-2.24-5-5Z"/></g></svg>
